X:1
T:The Burren
M:4/4
L:1/8
R:reel
K:Dmaj
DF|:AFAB AFED|AFAd f2fa|gefd edBA|dBAF EFDF|
|AFAB AFED|AFAd f2fa|gefd edBA|1agfe d2 DF:|2agfe dAde||
|:fded BdAG|FDFA dfaf|gefd edBA|dBAF EFDF|
|AFAB AFED|AFAd f2fa|gefd edBA|1agfe dAde:|2agfe d2|]
